Papirus/64x64/apps/basilisk2.svg

<svg width="64" height="64" version="1.1" xmlns="http://www.w3.org/2000/svg">
 <path d="m13.625042 53c2.123191 4.549734 4.748501 8 7.374989 8 5.999992 0 7.999989-2 11.999984-2 3.999994 0 5.999991 2 11.999982 2 2.622015 0 5.220719-3.462688 7.335928-8z" style="opacity:.2"/>
 <path d="m13.625042 52c2.123191 4.549734 4.748501 8 7.374989 8 5.999992 0 7.999989-2 11.999984-2 3.999994 0 5.999991 2 11.999982 2 2.622015 0 5.220719-3.462688 7.335928-8z" style="fill:#009bda"/>
 <path d="m10.734422 45c0.775725 2.745146 1.736979 5.52789 2.89062 8h38.710883c0.976859-2.09545 1.861374-4.399126 2.578121-6.734376a11.999983 12 0 0 1-2.499997-1.265624z" style="opacity:.2"/>
 <path d="m10.734422 44c0.775725 2.745146 1.736979 5.52789 2.89062 8h38.710883c0.976859-2.09545 1.861374-4.399126 2.578121-6.734376a11.999983 12 0 0 1-2.499997-1.265624z" style="fill:#953c96"/>
 <path d="m9.3789526 39c0.289078 1.86455 0.7644914 3.908646 1.3554694 6h41.679627a11.999983 12 0 0 1-4.714837-6z" style="opacity:.2"/>
 <path d="m9.3789526 38c0.289078 1.86455 0.7644914 3.908646 1.3554694 6h41.679627a11.999983 12 0 0 1-4.714837-6z" style="fill:#de393d"/>
 <path d="m9.4961406 31c-0.311859 1.309432-0.496093 2.652322-0.496093 4 0 1.14556 0.15046 2.526556 0.378905 4h38.320259a11.999983 12 0 0 1-0.699217-4 11.999983 12 0 0 1 0.703123-4z" style="opacity:.2"/>
 <path d="m9.4961406 30c-0.311859 1.309432-0.496093 2.652322-0.496093 4 0 1.14556 0.15046 2.526556 0.378905 4h38.320259a11.999983 12 0 0 1-0.699217-4 11.999983 12 0 0 1 0.703123-4z" style="fill:#f4811e"/>
 <path d="m12.058638 25c-1.157945 1.781458-2.047533 3.837778-2.5624974 6h38.206977a11.999983 12 0 0 1 4.679681-6z" style="opacity:.2"/>
 <path d="m12.058638 24c-1.157945 1.781458-2.047533 3.837778-2.5624974 6h38.206977a11.999983 12 0 0 1 4.679681-6z" style="fill:#fbb625"/>
 <path d="m43 5s-3.999994 0-7.999988 3.9999999c-3.999995 4.0000001-3.999995 10-3.999995 10s5.999992 0 9.999986-6c1.568928-2.353394 1.999997-8 1.999997-8zm-21.999969 14c-3.320205 0-6.63789 2.45614-8.941393 6h40.324161a11.999983 12 0 0 1 1.105469-0.65625c-2.274467-3.184904-5.378111-5.34375-8.488271-5.34375-7.999988 0-7.999988 2-11.999982 2-3.999995 0-3.999995-2-11.999984-2z" style="opacity:.2"/>
 <path d="m43 4s-3.999994 0-7.999988 4c-3.999995 4-3.999995 10-3.999995 10s5.999992 0 9.999986-6c1.568928-2.3533941 1.999997-8 1.999997-8zm-21.999969 14c-3.320205 0-6.63789 2.45614-8.941393 6h40.324161a11.999983 12 0 0 1 1.105469-0.65625c-2.274467-3.184904-5.378111-5.34375-8.488271-5.34375-7.999988 0-7.999988 2-11.999982 2-3.999995 0-3.999995-2-11.999984-2z" style="fill:#60ba45"/>
 <path d="m43 4s-4.000006 0-8 4c-3.999995 4-4 10-4 10s0.052334-0.001801 0.0625-0.001953c0.18777-1.875756 0.938369-5.998912 3.9375-8.998047 3.846562-3.8465676 7.605097-3.9845748 7.894531-3.9902344 0.07084-0.6072351 0.105469-1.0097656 0.105469-1.0097656zm-22 14c-5.999992 0-12 8-12 16 0 0.160794 0.0166853 0.348931 0.0214844 0.517578 0.2342708-7.835816 6.0992806-15.517578 11.978516-15.517578 7.999989 0 8.000005 2 12 2 3.999994 0 4.000011-2 12-2 2.875869 0 5.736845 1.8582 7.951172 4.654297a11.999984 12 0 0 1 0.537109-0.310547c-2.274467-3.184904-5.378121-5.34375-8.488281-5.34375-7.999989 0-8.000006 2-12 2-3.999995 0-4.000011-2-12-2zm26.023438 16.533203a11.999984 12 0 0 0-0.023438 0.466797 11.999984 12 0 0 0 7.621094 11.142578c0.09504-0.293431 0.202718-0.582907 0.292968-0.876953a11.999984 12 0 0 1-7.890624-10.732422z" style="fill:#ffffff;opacity:.2"/>
</svg>

<?xml version="1.0" encoding="UTF-8" standalone="no"?>
<svg
   id="_图层_1"
   version="1.1"
   viewBox="0 0 64 64" width="64" height="64"
   sodipodi:docname="basilisk2.svg"
   xml:space="preserve"
   inkscape:version="1.4 (e7c3feb100, 2024-10-09)"
   xmlns:inkscape="http://www.inkscape.org/namespaces/inkscape"
   xmlns:sodipodi="http://sodipodi.sourceforge.net/DTD/sodipodi-0.dtd"
   xmlns="http://www.w3.org/2000/svg"
   xmlns:svg="http://www.w3.org/2000/svg"><sodipodi:namedview
     id="namedview26"
     pagecolor="#505050"
     bordercolor="#eeeeee"
     borderopacity="1"
     inkscape:showpageshadow="0"
     inkscape:pageopacity="0"
     inkscape:pagecheckerboard="0"
     inkscape:deskcolor="#505050"
     inkscape:zoom="10.6875"
     inkscape:cx="32"
     inkscape:cy="34.339181"
     inkscape:window-width="1920"
     inkscape:window-height="939"
     inkscape:window-x="0"
     inkscape:window-y="34"
     inkscape:window-maximized="1"
     inkscape:current-layer="_图层_1" /><!-- Generator: Adobe Illustrator 29.0.1, SVG Export Plug-In . SVG Version: 2.1.0 Build 192)  --><defs
     id="defs6"><inkscape:path-effect
       effect="fillet_chamfer"
       id="path-effect26"
       is_visible="true"
       lpeversion="1"
       nodesatellites_param="F,0,0,1,0,0,0,1 @ F,0,0,1,0,0,0,1 @ F,0,1,1,0,0,0,1 @ F,0,0,1,0,0,0,1 | F,0,0,1,0,0,0,1 @ F,0,0,1,0,0,0,1 @ F,0,0,1,0,0,0,1 @ F,0,0,1,0,0,0,1"
       radius="0"
       unit="px"
       method="auto"
       mode="F"
       chamfer_steps="1"
       flexible="false"
       use_knot_distance="true"
       apply_no_radius="true"
       apply_with_radius="true"
       only_selected="false"
       hide_knots="false" /><style
       id="style1">
      .st0 {
        fill-opacity: .5;
      }

      .st0, .st1, .st2, .st3, .st4, .st5, .st6, .st7 {
        fill: #fff;
      }

      .st8 {
        fill: #133c9a;
      }

      .st2, .st9 {
        display: none;
      }

      .st3 {
        fill-opacity: .2;
      }

      .st4 {
        fill-opacity: .9;
      }

      .st10 {
        fill: #3370ff;
      }

      .st11 {
        fill: url(#_未命名的渐变_3);
      }

      .st12 {
        fill: url(#_未命名的渐变);
      }

      .st5 {
        fill-opacity: .3;
      }

      .st6 {
        fill-opacity: 0;
      }

      .st7 {
        fill-opacity: .7;
      }

      .st13 {
        fill: #00d6b9;
      }

      .st14 {
        fill: url(#_未命名的渐变_2);
      }
    </style><radialGradient
       id="_未命名的渐变"
       data-name="未命名的渐变"
       cx="123.9"
       cy="-40.2"
       fx="123.9"
       fy="-40.2"
       r="59.4"
       gradientTransform="translate(-26.8 25.5) scale(.6 -.7)"
       gradientUnits="userSpaceOnUse"><stop
         offset="0"
         stop-color="#db202e"
         id="stop1" /><stop
         offset="1"
         stop-color="#e01b24"
         id="stop2" /></radialGradient><radialGradient
       id="_未命名的渐变_2"
       data-name="未命名的渐变 2"
       cx="67.6"
       cy="26.8"
       fx="67.6"
       fy="26.8"
       r="105.2"
       gradientTransform="translate(-26.6 25.3) scale(.6 -.7)"
       gradientUnits="userSpaceOnUse"><stop
         offset="0"
         stop-color="#ffb648"
         id="stop3" /><stop
         offset="1"
         stop-color="#ff7800"
         stop-opacity="0"
         id="stop4" /></radialGradient><radialGradient
       id="_未命名的渐变_3"
       data-name="未命名的渐变 3"
       cx="61.7"
       cy="18.6"
       fx="61.7"
       fy="18.6"
       r="68"
       gradientTransform="translate(-26.8 25.8) scale(.6 -.7)"
       gradientUnits="userSpaceOnUse"><stop
         offset="0"
         stop-color="#c64600"
         id="stop5" /><stop
         offset="1"
         stop-color="#a51d2d"
         id="stop6" /></radialGradient></defs><path
     class="st1"
     d="M47.5,64.1H13.8c-7.6,0-13.8-6.3-13.8-13.8V13.7C0,6.2,6.2,0,13.7,0h36.6c7.5,0,13.7,6.2,13.7,13.7v36.6c0,7.5-6.2,13.7-13.7,13.7h-2.9.1Z"
     id="path6"
     style="fill:#f2f2f2;fill-opacity:1" /><g
     id="g26"
     transform="matrix(1,0,0,0.85718683,-1.454107,3.1004925)"><path
       d="m 13.625042,53 c 2.123191,4.549734 4.748501,8 7.374989,8 5.999992,0 7.999989,-2 11.999984,-2 3.999994,0 5.999991,2 11.999982,2 2.622015,0 5.220719,-3.462688 7.335928,-8 z"
       style="opacity:0.2"
       id="path1" /><path
       d="m 13.625042,52 c 2.123191,4.549734 4.748501,8 7.374989,8 5.999992,0 7.999989,-2 11.999984,-2 3.999994,0 5.999991,2 11.999982,2 2.622015,0 5.220719,-3.462688 7.335928,-8 z"
       style="fill:#009bda"
       id="path2" /><path
       d="m 10.734422,45 c 0.775725,2.745146 1.736979,5.52789 2.89062,8 h 38.710883 c 0.976859,-2.09545 1.861374,-4.399126 2.578121,-6.734376 A 11.999983,12 0 0 1 52.414049,45 Z"
       style="opacity:0.2"
       id="path3" /><path
       d="m 10.734422,44 c 0.775725,2.745146 1.736979,5.52789 2.89062,8 h 38.710883 c 0.976859,-2.09545 1.861374,-4.399126 2.578121,-6.734376 A 11.999983,12 0 0 1 52.414049,44 Z"
       style="fill:#953c96"
       id="path4" /><path
       d="m 9.3789526,39 c 0.289078,1.86455 0.7644914,3.908646 1.3554694,6 h 41.679627 a 11.999983,12 0 0 1 -4.714837,-6 z"
       style="opacity:0.2"
       id="path5" /><path
       d="m 9.3789526,38 c 0.289078,1.86455 0.7644914,3.908646 1.3554694,6 h 41.679627 a 11.999983,12 0 0 1 -4.714837,-6 z"
       style="fill:#de393d"
       id="path6-2" /><path
       d="m 9.4961406,31 c -0.311859,1.309432 -0.496093,2.652322 -0.496093,4 0,1.14556 0.15046,2.526556 0.378905,4 H 47.699212 a 11.999983,12 0 0 1 -0.699217,-4 11.999983,12 0 0 1 0.703123,-4 z"
       style="opacity:0.2"
       id="path7" /><path
       d="m 9.4961406,30 c -0.311859,1.309432 -0.496093,2.652322 -0.496093,4 0,1.14556 0.15046,2.526556 0.378905,4 H 47.699212 a 11.999983,12 0 0 1 -0.699217,-4 11.999983,12 0 0 1 0.703123,-4 z"
       style="fill:#f4811e"
       id="path8" /><path
       d="m 12.058638,25 c -1.157945,1.781458 -2.047533,3.837778 -2.5624974,6 H 47.703118 a 11.999983,12 0 0 1 4.679681,-6 z"
       style="opacity:0.2"
       id="path9" /><path
       d="m 12.058638,24 c -1.157945,1.781458 -2.047533,3.837778 -2.5624974,6 H 47.703118 a 11.999983,12 0 0 1 4.679681,-6 z"
       style="fill:#fbb625"
       id="path10" /><path
       d="M 43,5 C 43,5 39.000006,5 35.000012,8.9999999 31.000017,13 31.000017,19 31.000017,19 c 0,0 5.999992,0 9.999986,-6 C 42.568931,10.646606 43,4.9999999 43,5 Z M 21.000031,19 c -3.320205,0 -6.63789,2.45614 -8.941393,6 h 40.324161 a 11.999983,12 0 0 1 1.105469,-0.65625 C 51.213801,21.158846 48.110157,19 44.999997,19 37.000009,19 37.000009,21 33.000015,21 29.00002,21 29.00002,19 21.000031,19 Z"
       style="opacity:0.2"
       id="path11" /><path
       d="m 43,4 c 0,0 -3.999994,0 -7.999988,4 -3.999995,4 -3.999995,10 -3.999995,10 0,0 5.999992,0 9.999986,-6 C 42.568931,9.6466059 43,4 43,4 Z M 21.000031,18 c -3.320205,0 -6.63789,2.45614 -8.941393,6 h 40.324161 a 11.999983,12 0 0 1 1.105469,-0.65625 C 51.213801,20.158846 48.110157,18 44.999997,18 37.000009,18 37.000009,20 33.000015,20 29.00002,20 29.00002,18 21.000031,18 Z"
       style="fill:#60ba45"
       id="path12" /><path
       d="m 43,4 c 0,0 -4.000006,0 -8,4 -3.999995,4 -4,10 -4,10 0,0 0.05233,-0.0018 0.0625,-0.002 C 31.25027,16.122291 32.000869,11.999135 35,9 38.846562,5.1534324 42.605097,5.0154252 42.894531,5.0097656 42.965371,4.4025305 43,4 43,4 Z M 21,18 C 15.000008,18 9,26 9,34 9,34.160794 9.016685,34.348931 9.021484,34.517578 9.2557552,26.681762 15.120765,19 21,19 c 7.999989,0 8.000005,2 12,2 3.999994,0 4.000011,-2 12,-2 2.875869,0 5.736845,1.8582 7.951172,4.654297 A 11.999984,12 0 0 1 53.488281,23.34375 C 51.213814,20.158846 48.11016,18 45,18 37.000011,18 36.999994,20 33,20 29.000005,20 28.999989,18 21,18 Z M 47.023438,34.533203 A 11.999984,12 0 0 0 47,35 11.999984,12 0 0 0 54.621094,46.142578 c 0.09504,-0.293431 0.202718,-0.582907 0.292968,-0.876953 A 11.999984,12 0 0 1 47.023438,34.533203 Z"
       style="opacity:0.2;fill:#ffffff"
       id="path13" /></g></svg>
